X:14
T:The Hunter's House
R:reel
C:Ed Reavy
D:An Historic Recording of Irish Music
B:i.The Compositions of Ed Reavy, ii.Jerry Holland, the 2nd Colllection
Z:Paul Stewart Cranford (P.S.C.), <http://www.cranfordpub.com>                        
L:1/8
Q:333
M:C|
K:G
Bd d/d/d cAFA|G2 BG dGBG|BddB cBcA|GBAG FDCE|
D(G ~G2) A(G ~G2) |BGAF GABc|defg agfd|(3(cBA) FA BGGA:|
|:B2 gB aBgB|~B2 gf edcB|e(a ~a2) baaf|dfaf gfed|
B/B/B gB aBgB|~B2 gf edcB|ceAg fdaf|gdBd cAFA:|
